X:24
T:Allluia Taiz - U25
C:P. Damon
M:C
L:1/8
%%staves {1 2 3}
K:D
V:1 clef=treble% forc pour dernire mesure
"Re"F2FG "La"A2FE|"Sol"DB,DE "Re"F4|"Sol"G2AG "Re"F2GF|"Mi"E4 "La"A,4|"Re"F2FG "La"A2FE|\
"Sol"DB,DE "Re"F4|"Sol"G2AG "Re"F2GF|"La"E4 "Re"D4||
V:2
D4 E4|DB,B,2 D4|B,4 D4|B,4 C4|D4 E4|DB,B,2 D4|B,4 D4|D2C2 F,4||
V:3
D,4 C,4|B,,4 A,,4|G,,4 A,,4|^G,,4 A,,4|D,4 C,4|B,,4 A,,4|G,,4 A,,4|A,,4 D,,4||
